X: 2090
T: The Atholl Highlanders
B: nick
B: steve tunes
M:4/4
Q: 1/4=100
K:Amixolydian
V:1 
cd|:e3 ecA|ecA Bcd|e3 ecA|Bcd cBA|
 e3 ecA|ecA Bcd|eae fed|1 cdB Acd:|2 cdB A3||
 |:Ace Ace|Bdf Bdf|Ace Ace|Bcd cBA|
 Ace Ace|Bdf Bdf|eae fed|1 cdB A3:|2 cdB A2e||
 |:a2e edc|a2e edc|a2e edc|Bcd cBA|
 [1a2e edc|a2e edc|eae fed|cdB A2e:|
 [2a2e a2e|fdf e3|eae fed|cdB A2B||
 |:cAc cAc|dBd dBd|cAc cAc|BGB BGB|
 cAc cAc|dBd dBd|cae fed|1 cdB A2B:|2 cdB A3||
% abcbook-tune_id 63455f7bcdea8b9d5b7e67e4


% abcbook-boost 0
% abcbook-tablature 
% abcbook-transpose 
% abcbook-lastupdated 1666004389119
% abcbook-soundfonts 
% abcbook-repeats 3


